_includes/icons/color-git.svg

<svg fill="#666" height="50" viewBox="0 0 48 48" width="50" xmlns="http://www.w3.org/2000/svg"><path d="m42.199219 22.101563-16.300781-16.300782c-.5-.5-1.199219-.800781-1.898438-.800781s-1.398437.300781-1.898437.800781l-3.5 3.5 4.097656 4.097657c.402344-.199219.800781-.296875 1.300781-.296875 1.699219 0 3 1.296875 3 3 0 .5-.101562.898437-.300781 1.296875l4 4c.402344-.199219.800781-.296875 1.300781-.296875 1.699219 0 3 1.296875 3 3 0 1.699218-1.300781 3-3 3s-3-1.300782-3-3c0-.5.101563-.902344.300781-1.300782l-4-4c-.101562 0-.199218.097657-.300781.097657v10.402343c1.199219.398438 2 1.5 2 2.800782 0 1.699218-1.300781 3-3 3s-3-1.300782-3-3c0-1.300782.800781-2.402344 2-2.800782v-10.5c-1.199219-.402343-2-1.5-2-2.800781 0-.5.101563-.898437.300781-1.300781l-4.101562-4.097656-11.398438 11.5c-.5.5-.800781 1.199218-.800781 1.898437s.300781 1.398438.800781 1.898438l16.300782 16.300781c.5.5 1.199218.800781 1.898437.800781s1.398438-.300781 1.898438-.800781l16.300781-16.300781c.5-.5.800781-1.199219.800781-1.898438s-.300781-1.398437-.800781-1.898437z" fill="#f4511e"/></svg>

<svg xmlns="http://www.w3.org/2000/svg" viewBox="0 0 48 48" width="50" height="50" fill="#666"><path d="M 42.199219 22.101563 L 25.898438 5.800781 C 25.398438 5.300781 24.699219 5 24 5 C 23.300781 5 22.601563 5.300781 22.101563 5.800781 L 18.601563 9.300781 L 22.699219 13.398438 C 23.101563 13.199219 23.5 13.101563 24 13.101563 C 25.699219 13.101563 27 14.398438 27 16.101563 C 27 16.601563 26.898438 17 26.699219 17.398438 L 30.699219 21.398438 C 31.101563 21.199219 31.5 21.101563 32 21.101563 C 33.699219 21.101563 35 22.398438 35 24.101563 C 35 25.800781 33.699219 27.101563 32 27.101563 C 30.300781 27.101563 29 25.800781 29 24.101563 C 29 23.601563 29.101563 23.199219 29.300781 22.800781 L 25.300781 18.800781 C 25.199219 18.800781 25.101563 18.898438 25 18.898438 L 25 29.300781 C 26.199219 29.699219 27 30.800781 27 32.101563 C 27 33.800781 25.699219 35.101563 24 35.101563 C 22.300781 35.101563 21 33.800781 21 32.101563 C 21 30.800781 21.800781 29.699219 23 29.300781 L 23 18.800781 C 21.800781 18.398438 21 17.300781 21 16 C 21 15.5 21.101563 15.101563 21.300781 14.699219 L 17.199219 10.601563 L 5.800781 22.101563 C 5.300781 22.601563 5 23.300781 5 24 C 5 24.699219 5.300781 25.398438 5.800781 25.898438 L 22.101563 42.199219 C 22.601563 42.699219 23.300781 43 24 43 C 24.699219 43 25.398438 42.699219 25.898438 42.199219 L 42.199219 25.898438 C 42.699219 25.398438 43 24.699219 43 24 C 43 23.300781 42.699219 22.601563 42.199219 22.101563 Z" fill="#f4511e"/></svg>
